X: 26963
T: Miss Charlotte Stirling's Jigg
R: jig
M: 6/8
K: Dmajor
B|AFD DFD|AFA d2 B|AFD DFD|ECA, A,2 B|
AFD DFD|AFA d2 A|BdB cec d2 d d2:|
g|faf d2 f|gbg e2 g|faf d2 f|ecA A2 g|faf d2 f|
gbg e2 g|fdf ece|d2 d d2 g|faf d2 f|gbg e2 g|
faf d2 f|ecA A2 g|faf def|gbg efg|faf gec|d2 d d2||

